X: 33197
T: Promotion, The
R: jig
M: 6/8
K: Fmajor
FFF d2c-|cBA GFE|FFF d2c-|cde f3|FFF d2c-|cBA GFE|FED CDE|FGA BAG|
FFF d2c-|cBA GFE|FFF d2c-|cde f3|FFF d2c-|cBA GFE|cff gfe|f3-fgf|
ecc gcc|b2a g2f|eee bge|f3-fgf|ecc gcc|b2a g2f|eba gfe|f3-fgf|
ecc gcc|b2a g2f|eee bge|f3-fgf|ecc gcc|b2a g2f|eba gfe|fcA F3|

